;FLAVOR:Marlin
;TIME:18051
;Filament used: 12.8613m
;Layer height: 0.2
;MINX:27.5
;MINY:52.5
;MINZ:0.2
;MAXX:207.5
;MAXY:182.5
;MAXZ:4
;Generated with Cura_SteamEngine 4.8.0
M140 S80
M105
M190 S80
M104 S240
M105
M109 S240
M82 ;absolute extrusion mode
; Ender 3 Custom Start G-code
G92 E0 ; Reset Extruder
G28 ; Home all axes
G1 Z2.0 F3000 ; Move Z Axis up little to prevent scratching of Heat Bed
G1 X0.1 Y20 Z0.3 F5000.0 ; Move to start position
G1 X0.1 Y200.0 Z0.3 F1500.0 E15 ; Draw the first line
G1 X0.4 Y200.0 Z0.3 F5000.0 ; Move to side a little
G1 X0.4 Y20 Z0.3 F1500.0 E30 ; Draw the second line
G92 E0 ; Reset Extruder
G1 Z2.0 F3000 ; Move Z Axis up little to prevent scratching of Heat Bed
G1 X5 Y20 Z0.3 F5000.0 ; Move over to prevent blob squish
G92 E0
G92 E0
G1 F2700 E-5
;LAYER_COUNT:20
;LAYER:0
M107
G0 F6000 X32.912 Y54.039 Z0.2
;TYPE:SKIRT
G1 F2700 E0
G1 F900 X33.739 Y53.597 E0.03119
G1 X34.601 Y53.227 E0.06239
G1 X35.491 Y52.931 E0.09358
G1 X36.403 Y52.713 E0.12477
G1 X37.33 Y52.572 E0.15596
G1 X38.201 Y52.513 E0.18499
G1 X38.522 Y52.504 E0.19567
G1 X38.83 Y52.5 E0.20592
G1 X195.793 Y52.5 E5.42653
G1 X196.649 Y52.511 E5.455
G1 X197.585 Y52.565 E5.48619
G1 X198.513 Y52.697 E5.51736
G1 X199.427 Y52.909 E5.54857
G1 X200.319 Y53.198 E5.57976
G1 X201.184 Y53.561 E5.61096
G1 X202.014 Y53.997 E5.64214
G1 X202.805 Y54.502 E5.67335
G1 X203.549 Y55.073 E5.70455
G1 X204.242 Y55.705 E5.73574
G1 X204.879 Y56.393 E5.76693
G1 X205.454 Y57.134 E5.79812
G1 X205.965 Y57.92 E5.8293
G1 X206.407 Y58.748 E5.86052
G1 X206.776 Y59.61 E5.89171
G1 X207.071 Y60.5 E5.92289
G1 X207.289 Y61.412 E5.95408
G1 X207.429 Y62.34 E5.9853
G1 X207.487 Y63.201 E6.014
G1 X207.496 Y63.521 E6.02464
G1 X207.5 Y63.83 E6.03492
G1 X207.499 Y170.9 E9.59609
G1 X207.49 Y171.627 E9.62027
G1 X207.439 Y172.564 E9.65148
G1 X207.307 Y173.492 E9.68265
G1 X207.098 Y174.406 E9.71384
G1 X206.811 Y175.299 E9.74504
G1 X206.449 Y176.165 E9.77625
G1 X206.015 Y176.996 E9.80744
G1 X205.511 Y177.787 E9.83863
G1 X204.942 Y178.532 E9.86981
G1 X204.311 Y179.227 E9.90103
G1 X203.624 Y179.865 E9.93222
G1 X202.885 Y180.442 E9.9634
G1 X202.099 Y180.954 E9.9946
G1 X201.273 Y181.397 E10.02577
G1 X200.411 Y181.769 E10.057
G1 X199.522 Y182.065 E10.08816
G1 X198.61 Y182.285 E10.11937
G1 X197.683 Y182.426 E10.15055
G1 X196.799 Y182.487 E10.18003
G1 X196.478 Y182.496 E10.19071
G1 X196.17 Y182.5 E10.20095
G1 X39.065 Y182.499 E15.42629
G1 X38.367 Y182.49 E15.4495
G1 X37.431 Y182.438 E15.48068
G1 X36.502 Y182.306 E15.51189
G1 X35.588 Y182.096 E15.54308
G1 X34.695 Y181.809 E15.57428
G1 X33.83 Y181.446 E15.60548
G1 X32.999 Y181.012 E15.63666
G1 X32.208 Y180.508 E15.66786
G1 X31.463 Y179.938 E15.69906
G1 X30.769 Y179.307 E15.73026
G1 X30.132 Y178.62 E15.76142
G1 X29.555 Y177.88 E15.79263
G1 X29.043 Y177.094 E15.82383
G1 X28.6 Y176.267 E15.85503
G1 X28.229 Y175.406 E15.88621
G1 X27.933 Y174.516 E15.91741
G1 X27.714 Y173.604 E15.9486
G1 X27.573 Y172.677 E15.97979
G1 X27.513 Y171.788 E16.00943
G1 X27.504 Y171.455 E16.02051
G1 X27.5 Y171.158 E16.03038
G1 X27.501 Y64.025 E19.59364
G1 X27.51 Y63.36 E19.61576
G1 X27.563 Y62.424 E19.64694
G1 X27.695 Y61.495 E19.67815
G1 X27.906 Y60.581 E19.70935
G1 X28.194 Y59.689 E19.74053
G1 X28.557 Y58.824 E19.77173
G1 X28.992 Y57.993 E19.80293
G1 X29.496 Y57.203 E19.83409
G1 X30.066 Y56.458 E19.86529
G1 X30.698 Y55.764 E19.89651
G1 X31.386 Y55.127 E19.9277
G1 X32.126 Y54.551 E19.95889
G1 X32.912 Y54.039 E19.99009
G0 F6000 X33.291 Y54.282
G1 F900 X34.111 Y53.864 E20.0207
G1 X34.965 Y53.519 E20.05133
G1 X35.845 Y53.249 E20.08195
G1 X36.745 Y53.057 E20.11256
G1 X37.659 Y52.943 E20.14319
G1 X38.212 Y52.913 E20.16161
G1 X38.533 Y52.904 E20.17229
G1 X38.83 Y52.9 E20.18217
G1 X195.793 Y52.9 E25.40278
G1 X196.643 Y52.911 E25.43106
G1 X197.562 Y52.964 E25.46167
G1 X198.473 Y53.097 E25.49229
G1 X199.369 Y53.308 E25.52291
G1 X200.243 Y53.596 E25.55352
G1 X201.09 Y53.959 E25.58417
G1 X201.901 Y54.394 E25.61478
G1 X202.671 Y54.898 E25.64538
G1 X203.395 Y55.467 E25.67601
G1 X204.067 Y56.097 E25.70665
G1 X204.682 Y56.782 E25.73727
G1 X205.235 Y57.518 E25.76789
G1 X205.722 Y58.299 E25.7985
G1 X206.139 Y59.12 E25.82913
G1 X206.484 Y59.974 E25.85976
G1 X206.753 Y60.854 E25.89037
G1 X206.945 Y61.755 E25.92101
G1 X207.058 Y62.668 E25.9516
G1 X207.087 Y63.212 E25.96972
G1 X207.096 Y63.532 E25.98037
G1 X207.1 Y63.83 E25.99028
G1 X207.099 Y170.895 E29.55128
G1 X207.09 Y171.622 E29.57546
G1 X207.039 Y172.541 E29.60608
G1 X206.908 Y173.453 E29.63672
G1 X206.698 Y174.349 E29.66733
G1 X206.412 Y175.224 E29.69795
G1 X206.051 Y176.071 E29.72857
G1 X205.617 Y176.883 E29.75919
G1 X205.115 Y177.655 E29.78982
G1 X204.547 Y178.38 E29.82045
G1 X203.919 Y179.053 E29.85107
G1 X203.235 Y179.669 E29.88168
G1 X202.5 Y180.223 E29.9123
G1 X201.72 Y180.712 E29.94292
G1 X200.9 Y181.131 E29.97354
G1 X200.047 Y181.477 E30.00416
G1 X199.167 Y181.748 E30.03479
G1 X198.267 Y181.941 E30.0654
G1 X197.353 Y182.056 E30.09604
G1 X196.788 Y182.087 E30.11486
G1 X196.467 Y182.096 E30.12554
G1 X196.17 Y182.1 E30.13542
G1 X39.07 Y182.099 E35.36059
G1 X38.372 Y182.09 E35.3838
G1 X37.453 Y182.038 E35.41442
G1 X36.542 Y181.907 E35.44503
G1 X35.646 Y181.697 E35.47564
G1 X34.771 Y181.41 E35.50627
G1 X33.924 Y181.048 E35.5369
G1 X33.112 Y180.614 E35.56753
G1 X32.341 Y180.112 E35.59813
G1 X31.616 Y179.544 E35.62876
G1 X30.943 Y178.915 E35.6594
G1 X30.328 Y178.231 E35.68999
G1 X29.774 Y177.496 E35.72061
G1 X29.286 Y176.715 E35.75124
G1 X28.867 Y175.895 E35.78186
G1 X28.521 Y175.042 E35.81248
G1 X28.251 Y174.162 E35.84309
G1 X28.058 Y173.261 E35.87374
G1 X27.944 Y172.348 E35.90434
G1 X27.913 Y171.777 E35.92336
G1 X27.904 Y171.444 E35.93444
G1 X27.9 Y171.158 E35.94396
G1 X27.901 Y64.031 E39.50701
G1 X27.91 Y63.366 E39.52913
G1 X27.962 Y62.446 E39.55978
G1 X28.094 Y61.535 E39.5904
G1 X28.305 Y60.639 E39.62102
G1 X28.592 Y59.764 E39.65164
G1 X28.955 Y58.918 E39.68226
G1 X29.389 Y58.106 E39.71289
G1 X29.892 Y57.335 E39.7435
G1 X30.461 Y56.611 E39.77413
G1 X31.089 Y55.939 E39.80472
G1 X31.774 Y55.323 E39.83536
G1 X32.51 Y54.77 E39.86598
G1 X33.291 Y54.282 E39.89661
G0 F6000 X33.669 Y54.531
G1 F900 X34.482 Y54.138 E39.92665
G1 X35.327 Y53.818 E39.9567
G1 X36.196 Y53.575 E39.98671
G1 X37.084 Y53.409 E40.01676
G1 X38.223 Y53.313 E40.05478
G1 X38.544 Y53.304 E40.06546
G1 X38.83 Y53.3 E40.07497
G1 X195.793 Y53.3 E45.29558
G1 X196.637 Y53.311 E45.32365
G1 X197.539 Y53.364 E45.35371
G1 X198.432 Y53.496 E45.38373
G1 X199.31 Y53.707 E45.41376
G1 X200.166 Y53.995 E45.4438
G1 X200.993 Y54.357 E45.47383
G1 X201.785 Y54.792 E45.50388
G1 X202.536 Y55.294 E45.53393
G1 X203.239 Y55.861 E45.56397
G1 X203.889 Y56.488 E45.594
G1 X204.481 Y57.17 E45.62404
G1 X205.011 Y57.901 E45.65407
G1 X205.473 Y58.677 E45.68411
G1 X205.866 Y59.49 E45.71414
G1 X206.184 Y60.335 E45.74417
G1 X206.427 Y61.205 E45.77422
G1 X206.592 Y62.093 E45.80426
G1 X206.687 Y63.223 E45.84197
G1 X206.696 Y63.543 E45.85262
G1 X206.7 Y63.83 E45.86217
G1 X206.699 Y170.89 E49.423
G1 X206.69 Y171.617 E49.44718
G1 X206.639 Y172.519 E49.47723
G1 X206.508 Y173.413 E49.50728
G1 X206.299 Y174.291 E49.5373
G1 X206.013 Y175.148 E49.56735
G1 X205.652 Y175.976 E49.59739
G1 X205.22 Y176.768 E49.6274
G1 X204.719 Y177.52 E49.65745
G1 X204.153 Y178.224 E49.6875
G1 X203.528 Y178.875 E49.71751
G1 X202.847 Y179.469 E49.74757
G1 X202.116 Y180 E49.77762
G1 X201.342 Y180.464 E49.80763
G1 X200.529 Y180.858 E49.83768
G1 X199.685 Y181.178 E49.8677
G1 X198.815 Y181.423 E49.89777
G1 X197.928 Y181.589 E49.92778
G1 X196.777 Y181.687 E49.9662
G1 X196.456 Y181.696 E49.97688
G1 X196.17 Y181.7 E49.98639
G1 X39.075 Y181.699 E55.2114
G1 X38.377 Y181.69 E55.23461
G1 X37.476 Y181.639 E55.26463
G1 X36.582 Y181.507 E55.29468
G1 X35.704 Y181.298 E55.3247
G1 X34.847 Y181.011 E55.35476
G1 X34.02 Y180.65 E55.38478
G1 X33.227 Y180.217 E55.41483
G1 X32.476 Y179.716 E55.44485
G1 X31.772 Y179.15 E55.4749
G1 X31.121 Y178.524 E55.50494
G1 X30.528 Y177.843 E55.53497
G1 X29.998 Y177.112 E55.565
G1 X29.534 Y176.337 E55.59504
G1 X29.14 Y175.524 E55.62509
G1 X28.82 Y174.68 E55.65511
G1 X28.576 Y173.81 E55.68517
G1 X28.41 Y172.922 E55.71521
G1 X28.313 Y171.767 E55.75376
G1 X28.304 Y171.434 E55.76484
G1 X28.3 Y171.158 E55.77403
G1 X28.301 Y64.036 E59.33692
G1 X28.31 Y63.371 E59.35904
G1 X28.362 Y62.469 E59.38909
G1 X28.494 Y61.576 E59.41911
G1 X28.704 Y60.698 E59.44914
G1 X28.991 Y59.841 E59.4792
G1 X29.353 Y59.014 E59.50922
G1 X29.786 Y58.222 E59.53925
G1 X30.288 Y57.471 E59.56929
G1 X30.855 Y56.767 E59.59936
G1 X31.481 Y56.117 E59.62937
G1 X32.162 Y55.524 E59.6594
G1 X32.894 Y54.994 E59.68946
G1 X33.669 Y54.531 E59.71949
G1 F2700 E54.71949
;MESH:PLsi  v0 - Housing Base rev C.stl
G0 F6000 X48.393 Y160.036
G0 X49.12 Y157.898
G0 X50.831 Y160.817
G0 X51.136 Y161.714
G0 X51.184 Y162.472
G0 X51.026 Y165.448
;TYPE:WALL-INNER
G1 F2700 E59.71949
G1 F900 X51.39 Y164.973 E59.73939
G1 X51.692 Y164.453 E59.75939
G1 X51.92 Y163.901 E59.77926
G1 X52.052 Y163.421 E59.79581
G1 X52.122 Y163.036 E59.80883
G1 X52.158 Y162.702 E59.82
G1 X52.157 Y162.124 E59.83923
G1 X52.079 Y161.526 E59.85929
G1 X51.925 Y160.945 E59.87928
G1 X51.694 Y160.391 E59.89924
G1 X51.393 Y159.87 E59.91925
G1 X51.027 Y159.394 E59.93922
G1 X50.609 Y158.976 E59.95889
G1 X50.134 Y158.609 E59.97885
G1 X49.611 Y158.307 E59.99894
G1 X49.058 Y158.079 E60.01883
G1 X48.478 Y157.921 E60.03883
G1 X47.882 Y157.843 E60.05882
G1 X47.284 Y157.843 E60.07871
G1 X46.686 Y157.921 E60.09877
G1 X46.105 Y158.075 E60.11876
G1 X45.551 Y158.306 E60.13872
G1 X45.03 Y158.607 E60.15873
G1 X44.556 Y158.972 E60.17863
G1 X44.134 Y159.393 E60.19846
G1 X43.769 Y159.866 E60.21833
G1 X43.466 Y160.388 E60.2384
G1 X43.24 Y160.941 E60.25827
G1 X43.081 Y161.521 E60.27828
G1 X43.003 Y162.118 E60.2983
G1 X43.003 Y162.717 E60.31822
G1 X43.08 Y163.313 E60.33821
G1 X43.238 Y163.896 E60.3583
G1 X43.465 Y164.448 E60.37815
G1 X43.767 Y164.97 E60.39821
G1 X44.133 Y165.443 E60.4181
G1 X44.552 Y165.866 E60.43791
G1 X45.028 Y166.231 E60.45786
G1 X45.547 Y166.531 E60.47779
G1 X46.099 Y166.761 E60.49768
G1 X46.684 Y166.919 E60.51784
G1 X47.278 Y166.997 E60.53776
G1 X47.879 Y166.997 E60.55775
G1 X48.474 Y166.919 E60.57771
G1 X49.053 Y166.765 E60.59764
G1 X49.608 Y166.535 E60.61762
G1 X50.131 Y166.233 E60.63771
G1 X50.603 Y165.867 E60.65757
G1 X51.026 Y165.448 E60.67738
G0 F6000 X50.725 Y165.183
G1 F900 X51.057 Y164.75 E60.69552
G1 X51.333 Y164.275 E60.7138
G1 X51.541 Y163.771 E60.73193
G1 X51.662 Y163.332 E60.74708
G1 X51.726 Y162.979 E60.75901
G1 X51.758 Y162.681 E60.76898
G1 X51.757 Y162.15 E60.78664
G1 X51.686 Y161.604 E60.80495
G1 X51.545 Y161.074 E60.82319
G1 X51.335 Y160.569 E60.84138
G1 X51.06 Y160.093 E60.85967
G1 X50.726 Y159.659 E60.87788
G1 X50.344 Y159.277 E60.89585
G1 X49.911 Y158.942 E60.91406
G1 X49.434 Y158.667 E60.93237
G1 X48.929 Y158.458 E60.95055
G1 X48.399 Y158.314 E60.96882
G1 X47.856 Y158.243 E60.98703
G1 X47.31 Y158.243 E61.00519
G1 X46.764 Y158.314 E61.0235
G1 X46.234 Y158.455 E61.04174
G1 X45.729 Y158.665 E61.05994
G1 X45.253 Y158.94 E61.07822
G1 X44.82 Y159.273 E61.09639
G1 X44.435 Y159.658 E61.1145
G1 X44.102 Y160.09 E61.13264
G1 X43.826 Y160.565 E61.15091
G1 X43.619 Y161.07 E61.16906
G1 X43.474 Y161.6 E61.18734
G1 X43.403 Y162.144 E61.20559
G1 X43.403 Y162.691 E61.22378
G1 X43.473 Y163.235 E61.24202
G1 X43.617 Y163.767 E61.26035
G1 X43.825 Y164.271 E61.27849
G1 X44.1 Y164.747 E61.29677
G1 X44.434 Y165.179 E61.31493
G1 X44.817 Y165.565 E61.33302
G1 X45.251 Y165.898 E61.35121
G1 X45.725 Y166.172 E61.36942
G1 X46.229 Y166.382 E61.38758
G1 X46.762 Y166.526 E61.40595
G1 X47.304 Y166.597 E61.42413
G1 X47.853 Y166.597 E61.44239
G1 X48.396 Y166.526 E61.4606
G1 X48.925 Y166.385 E61.47881
G1 X49.431 Y166.176 E61.49702
G1 X49.907 Y165.9 E61.51532
G1 X50.339 Y165.566 E61.53348
G1 X50.725 Y165.183 E61.55157
G0 F6000 X50.424 Y164.918
G1 F900 X50.724 Y164.527 E61.56796
G1 X50.974 Y164.097 E61.5845
G1 X51.162 Y163.641 E61.60091
G1 X51.272 Y163.243 E61.61464
G1 X51.33 Y162.922 E61.62549
G1 X51.358 Y162.66 E61.63425
G1 X51.357 Y162.176 E61.65035
G1 X51.293 Y161.682 E61.66692
G1 X51.165 Y161.203 E61.68341
G1 X50.976 Y160.746 E61.69986
G1 X50.727 Y160.316 E61.71639
G1 X50.425 Y159.924 E61.73284
G1 X50.079 Y159.578 E61.74912
G1 X49.687 Y159.275 E61.7656
G1 X49.257 Y159.026 E61.78212
G1 X48.8 Y158.837 E61.79857
G1 X48.32 Y158.707 E61.81511
G1 X47.83 Y158.643 E61.83155
G1 X47.336 Y158.643 E61.84798
G1 X46.842 Y158.707 E61.86455
G1 X46.363 Y158.835 E61.88104
G1 X45.906 Y159.024 E61.89749
G1 X45.476 Y159.273 E61.91401
G1 X45.085 Y159.574 E61.93042
G1 X44.736 Y159.923 E61.94684
G1 X44.435 Y160.314 E61.96325
G1 X44.186 Y160.742 E61.97972
G1 X43.998 Y161.199 E61.99616
G1 X43.867 Y161.679 E62.01271
G1 X43.803 Y162.17 E62.02918
G1 X43.803 Y162.665 E62.04564
G1 X43.866 Y163.157 E62.06214
G1 X43.996 Y163.638 E62.07871
G1 X44.185 Y164.094 E62.09513
G1 X44.433 Y164.524 E62.11164
G1 X44.735 Y164.915 E62.12807
G1 X45.082 Y165.264 E62.14444
G1 X45.474 Y165.565 E62.16088
G1 X45.903 Y165.813 E62.17736
G1 X46.359 Y166.003 E62.19379
G1 X46.84 Y166.133 E62.21036
G1 X47.33 Y166.197 E62.2268
G1 X47.827 Y166.197 E62.24333
G1 X48.318 Y166.133 E62.25979
G1 X48.796 Y166.005 E62.27625
G1 X49.254 Y165.816 E62.29273
G1 X49.684 Y165.567 E62.30926
G1 X50.075 Y165.265 E62.32569
G1 X50.424 Y164.918 E62.34206
G0 F6000 X50.123 Y164.653
;TYPE:WALL-OUTER
G1 F900 X50.391 Y164.304 E62.3567
G1 X50.615 Y163.919 E62.37151
G1 X50.783 Y163.511 E62.38619
G1 X50.882 Y163.154 E62.39851
G1 X50.934 Y162.865 E62.40827
G1 X50.958 Y162.639 E62.41583
G1 X50.957 Y162.202 E62.43037
G1 X50.9 Y161.76 E62.44519
G1 X50.785 Y161.332 E62.45993
G1 X50.616 Y160.923 E62.47465
G1 X50.394 Y160.539 E62.4894
G1 X50.124 Y160.189 E62.5041
G1 X49.814 Y159.879 E62.51869
G1 X49.463 Y159.608 E62.53344
G1 X49.079 Y159.385 E62.5482
G1 X48.671 Y159.216 E62.56289
G1 X48.242 Y159.1 E62.57767
G1 X47.804 Y159.043 E62.59236
G1 X47.362 Y159.043 E62.60707
G1 X46.92 Y159.1 E62.62189
G1 X46.492 Y159.215 E62.63663
G1 X46.083 Y159.384 E62.65135
G1 X45.699 Y159.606 E62.6661
G1 X45.349 Y159.875 E62.68078
G1 X45.037 Y160.187 E62.69546
G1 X44.768 Y160.537 E62.71014
G1 X44.545 Y160.92 E62.72488
G1 X44.377 Y161.328 E62.73956
G1 X44.26 Y161.758 E62.75438
G1 X44.203 Y162.196 E62.76907
G1 X44.203 Y162.64 E62.78384
G1 X44.259 Y163.079 E62.79856
G1 X44.375 Y163.509 E62.81337
G1 X44.544 Y163.917 E62.82806
G1 X44.766 Y164.301 E62.84281
G1 X45.036 Y164.651 E62.85751
G1 X45.347 Y164.963 E62.87216
G1 X45.697 Y165.232 E62.88685
G1 X46.081 Y165.454 E62.9016
G1 X46.489 Y165.624 E62.9163
G1 X46.918 Y165.74 E62.93108
G1 X47.356 Y165.797 E62.94577
G1 X47.801 Y165.797 E62.96057
G1 X48.24 Y165.74 E62.9753
G1 X48.667 Y165.625 E62.99
G1 X49.077 Y165.456 E63.00475
G1 X49.461 Y165.234 E63.01951
G1 X49.811 Y164.964 E63.03421
G1 X50.123 Y164.653 E63.04886
G0 F6000 X50.453 Y164.943
G1 F2700 E58.04886
G0 F6000 X51.116 Y163.207
G0 X51.196 Y162.187
G0 X51.012 Y161.256
G0 X50.775 Y160.775
G0 X49.12 Y157.898
G0 X48.393 Y160.036
G0 X47.91 Y75.994
G0 X48.202 Y78.237
G0 X49.333 Y77.734
;TYPE:WALL-INNER
G1 F2700 E63.04886
G1 F900 X49.87 Y77.471 E63.06875
G1 X50.371 Y77.137 E63.08878
G1 X50.82 Y76.74 E63.10871
G1 X51.215 Y76.293 E63.12855
G1 X51.549 Y75.791 E63.1486
G1 X51.813 Y75.258 E63.16839
G1 X52.007 Y74.689 E63.18838
G1 X52.118 Y74.125 E63.2075
G1 X52.124 Y74.099 E63.20839
G1 X52.125 Y74.074 E63.20922
G1 X52.164 Y73.505 E63.22819
G1 X52.127 Y72.902 E63.24828
G1 X52.011 Y72.338 E63.26743
G1 X51.912 Y72.007 E63.27893
G1 X51.69 Y71.472 E63.29819
G1 X51.393 Y70.956 E63.31799
G1 X51.08 Y70.545 E63.33518
G1 X50.812 Y70.25 E63.34843
G1 X50.374 Y69.865 E63.36783
G1 X49.872 Y69.531 E63.38788
G1 X49.338 Y69.267 E63.4077
G1 X48.769 Y69.073 E63.42769
G1 X48.205 Y68.962 E63.44681
G1 X48.179 Y68.956 E63.4477
G1 X48.154 Y68.955 E63.44853
G1 X47.585 Y68.916 E63.4675
G1 X46.983 Y68.953 E63.48756
G1 X46.394 Y69.072 E63.50754
G1 X45.825 Y69.266 E63.52754
G1 X45.29 Y69.53 E63.54738
G1 X44.79 Y69.863 E63.56736
G1 X44.337 Y70.26 E63.5874
G1 X43.945 Y70.708 E63.6072
G1 X43.612 Y71.205 E63.62709
G1 X43.347 Y71.742 E63.64701
G1 X43.153 Y72.309 E63.66694
