;FLAVOR:Marlin
;TIME:21362
;Filament used: 12.9024m
;Layer height: 0.2
;MINX:27.5
;MINY:52.5
;MINZ:0.2
;MAXX:207.5
;MAXY:182.5
;MAXZ:4.2
;Generated with Cura_SteamEngine 4.8.0
M140 S80
M105
M190 S80
M104 S240
M105
M109 S240
M82 ;absolute extrusion mode
; Ender 3 Custom Start G-code
G92 E0 ; Reset Extruder
G28 ; Home all axes
G1 Z2.0 F3000 ; Move Z Axis up little to prevent scratching of Heat Bed
G1 X0.1 Y20 Z0.3 F5000.0 ; Move to start position
G1 X0.1 Y200.0 Z0.3 F1500.0 E15 ; Draw the first line
G1 X0.4 Y200.0 Z0.3 F5000.0 ; Move to side a little
G1 X0.4 Y20 Z0.3 F1500.0 E30 ; Draw the second line
G92 E0 ; Reset Extruder
G1 Z2.0 F3000 ; Move Z Axis up little to prevent scratching of Heat Bed
G1 X5 Y20 Z0.3 F5000.0 ; Move over to prevent blob squish
G92 E0
G92 E0
G1 F2700 E-5
;LAYER_COUNT:21
;LAYER:0
M107
G0 F6000 X32.912 Y54.039 Z0.2
;TYPE:SKIRT
G1 F2700 E0
G1 F900 X33.739 Y53.597 E0.03119
G1 X34.601 Y53.227 E0.06239
G1 X35.491 Y52.931 E0.09358
G1 X36.403 Y52.713 E0.12477
G1 X37.33 Y52.572 E0.15596
G1 X38.201 Y52.513 E0.18499
G1 X38.522 Y52.504 E0.19567
G1 X38.83 Y52.5 E0.20592
G1 X195.793 Y52.5 E5.42653
G1 X196.649 Y52.511 E5.455
G1 X197.585 Y52.565 E5.48619
G1 X198.513 Y52.697 E5.51736
G1 X199.427 Y52.909 E5.54857
G1 X200.319 Y53.198 E5.57976
G1 X201.184 Y53.561 E5.61096
G1 X202.014 Y53.997 E5.64214
G1 X202.805 Y54.502 E5.67335
G1 X203.549 Y55.073 E5.70455
G1 X204.242 Y55.705 E5.73574
G1 X204.879 Y56.393 E5.76693
G1 X205.454 Y57.134 E5.79812
G1 X205.965 Y57.92 E5.8293
G1 X206.407 Y58.748 E5.86052
G1 X206.776 Y59.61 E5.89171
G1 X207.071 Y60.5 E5.92289
G1 X207.289 Y61.412 E5.95408
G1 X207.429 Y62.34 E5.9853
G1 X207.487 Y63.201 E6.014
G1 X207.496 Y63.521 E6.02464
G1 X207.5 Y63.83 E6.03492
G1 X207.499 Y170.9 E9.59609
G1 X207.49 Y171.627 E9.62027
G1 X207.439 Y172.564 E9.65148
G1 X207.307 Y173.492 E9.68265
G1 X207.098 Y174.406 E9.71384
G1 X206.811 Y175.299 E9.74504
G1 X206.449 Y176.165 E9.77625
G1 X206.015 Y176.996 E9.80744
G1 X205.511 Y177.787 E9.83863
G1 X204.942 Y178.532 E9.86981
G1 X204.311 Y179.227 E9.90103
G1 X203.624 Y179.865 E9.93222
G1 X202.885 Y180.442 E9.9634
G1 X202.099 Y180.954 E9.9946
G1 X201.273 Y181.397 E10.02577
G1 X200.411 Y181.769 E10.057
G1 X199.522 Y182.065 E10.08816
G1 X198.61 Y182.285 E10.11937
G1 X197.683 Y182.426 E10.15055
G1 X196.799 Y182.487 E10.18003
G1 X196.478 Y182.496 E10.19071
G1 X196.17 Y182.5 E10.20095
G1 X39.065 Y182.499 E15.42629
G1 X38.367 Y182.49 E15.4495
G1 X37.431 Y182.438 E15.48068
G1 X36.502 Y182.306 E15.51189
G1 X35.588 Y182.096 E15.54308
G1 X34.695 Y181.809 E15.57428
G1 X33.83 Y181.446 E15.60548
G1 X32.999 Y181.012 E15.63666
G1 X32.208 Y180.508 E15.66786
G1 X31.463 Y179.938 E15.69906
G1 X30.769 Y179.307 E15.73026
G1 X30.132 Y178.62 E15.76142
G1 X29.555 Y177.88 E15.79263
G1 X29.043 Y177.094 E15.82383
G1 X28.6 Y176.267 E15.85503
G1 X28.229 Y175.406 E15.88621
G1 X27.933 Y174.516 E15.91741
G1 X27.714 Y173.604 E15.9486
G1 X27.573 Y172.677 E15.97979
G1 X27.513 Y171.788 E16.00943
G1 X27.504 Y171.455 E16.02051
G1 X27.5 Y171.158 E16.03038
G1 X27.501 Y64.025 E19.59364
G1 X27.51 Y63.36 E19.61576
G1 X27.563 Y62.424 E19.64694
G1 X27.695 Y61.495 E19.67815
G1 X27.906 Y60.581 E19.70935
G1 X28.194 Y59.689 E19.74053
G1 X28.557 Y58.824 E19.77173
G1 X28.992 Y57.993 E19.80293
G1 X29.496 Y57.203 E19.83409
G1 X30.066 Y56.458 E19.86529
G1 X30.698 Y55.764 E19.89651
G1 X31.386 Y55.127 E19.9277
G1 X32.126 Y54.551 E19.95889
G1 X32.912 Y54.039 E19.99009
G0 F6000 X33.291 Y54.282
G1 F900 X34.111 Y53.864 E20.0207
G1 X34.965 Y53.519 E20.05133
G1 X35.845 Y53.249 E20.08195
G1 X36.745 Y53.057 E20.11256
G1 X37.659 Y52.943 E20.14319
G1 X38.212 Y52.913 E20.16161
G1 X38.533 Y52.904 E20.17229
G1 X38.83 Y52.9 E20.18217
G1 X195.793 Y52.9 E25.40278
G1 X196.643 Y52.911 E25.43106
G1 X197.562 Y52.964 E25.46167
G1 X198.473 Y53.097 E25.49229
G1 X199.369 Y53.308 E25.52291
G1 X200.243 Y53.596 E25.55352
G1 X201.09 Y53.959 E25.58417
G1 X201.901 Y54.394 E25.61478
G1 X202.671 Y54.898 E25.64538
G1 X203.395 Y55.467 E25.67601
G1 X204.067 Y56.097 E25.70665
G1 X204.682 Y56.782 E25.73727
G1 X205.235 Y57.518 E25.76789
G1 X205.722 Y58.299 E25.7985
G1 X206.139 Y59.12 E25.82913
G1 X206.484 Y59.974 E25.85976
G1 X206.753 Y60.854 E25.89037
G1 X206.945 Y61.755 E25.92101
G1 X207.058 Y62.668 E25.9516
G1 X207.087 Y63.212 E25.96972
G1 X207.096 Y63.532 E25.98037
G1 X207.1 Y63.83 E25.99028
G1 X207.099 Y170.895 E29.55128
G1 X207.09 Y171.622 E29.57546
G1 X207.039 Y172.541 E29.60608
G1 X206.908 Y173.453 E29.63672
G1 X206.698 Y174.349 E29.66733
G1 X206.412 Y175.224 E29.69795
G1 X206.051 Y176.071 E29.72857
G1 X205.617 Y176.883 E29.75919
G1 X205.115 Y177.655 E29.78982
G1 X204.547 Y178.38 E29.82045
G1 X203.919 Y179.053 E29.85107
G1 X203.235 Y179.669 E29.88168
G1 X202.5 Y180.223 E29.9123
G1 X201.72 Y180.712 E29.94292
G1 X200.9 Y181.131 E29.97354
G1 X200.047 Y181.477 E30.00416
G1 X199.167 Y181.748 E30.03479
G1 X198.267 Y181.941 E30.0654
G1 X197.353 Y182.056 E30.09604
G1 X196.788 Y182.087 E30.11486
G1 X196.467 Y182.096 E30.12554
G1 X196.17 Y182.1 E30.13542
G1 X39.07 Y182.099 E35.36059
G1 X38.372 Y182.09 E35.3838
G1 X37.453 Y182.038 E35.41442
G1 X36.542 Y181.907 E35.44503
G1 X35.646 Y181.697 E35.47564
G1 X34.771 Y181.41 E35.50627
G1 X33.924 Y181.048 E35.5369
G1 X33.112 Y180.614 E35.56753
G1 X32.341 Y180.112 E35.59813
G1 X31.616 Y179.544 E35.62876
G1 X30.943 Y178.915 E35.6594
G1 X30.328 Y178.231 E35.68999
G1 X29.774 Y177.496 E35.72061
G1 X29.286 Y176.715 E35.75124
G1 X28.867 Y175.895 E35.78186
G1 X28.521 Y175.042 E35.81248
G1 X28.251 Y174.162 E35.84309
G1 X28.058 Y173.261 E35.87374
G1 X27.944 Y172.348 E35.90434
G1 X27.913 Y171.777 E35.92336
G1 X27.904 Y171.444 E35.93444
G1 X27.9 Y171.158 E35.94396
G1 X27.901 Y64.031 E39.50701
G1 X27.91 Y63.366 E39.52913
G1 X27.962 Y62.446 E39.55978
G1 X28.094 Y61.535 E39.5904
G1 X28.305 Y60.639 E39.62102
G1 X28.592 Y59.764 E39.65164
G1 X28.955 Y58.918 E39.68226
G1 X29.389 Y58.106 E39.71289
G1 X29.892 Y57.335 E39.7435
G1 X30.461 Y56.611 E39.77413
G1 X31.089 Y55.939 E39.80472
G1 X31.774 Y55.323 E39.83536
G1 X32.51 Y54.77 E39.86598
G1 X33.291 Y54.282 E39.89661
G0 F6000 X33.669 Y54.531
G1 F900 X34.482 Y54.138 E39.92665
G1 X35.327 Y53.818 E39.9567
G1 X36.196 Y53.575 E39.98671
G1 X37.084 Y53.409 E40.01676
G1 X38.223 Y53.313 E40.05478
G1 X38.544 Y53.304 E40.06546
G1 X38.83 Y53.3 E40.07497
G1 X195.793 Y53.3 E45.29558
G1 X196.637 Y53.311 E45.32365
G1 X197.539 Y53.364 E45.35371
G1 X198.432 Y53.496 E45.38373
G1 X199.31 Y53.707 E45.41376
G1 X200.166 Y53.995 E45.4438
G1 X200.993 Y54.357 E45.47383
G1 X201.785 Y54.792 E45.50388
G1 X202.536 Y55.294 E45.53393
G1 X203.239 Y55.861 E45.56397
G1 X203.889 Y56.488 E45.594
G1 X204.481 Y57.17 E45.62404
G1 X205.011 Y57.901 E45.65407
G1 X205.473 Y58.677 E45.68411
G1 X205.866 Y59.49 E45.71414
G1 X206.184 Y60.335 E45.74417
G1 X206.427 Y61.205 E45.77422
G1 X206.592 Y62.093 E45.80426
G1 X206.687 Y63.223 E45.84197
G1 X206.696 Y63.543 E45.85262
G1 X206.7 Y63.83 E45.86217
G1 X206.699 Y170.89 E49.423
G1 X206.69 Y171.617 E49.44718
G1 X206.639 Y172.519 E49.47723
G1 X206.508 Y173.413 E49.50728
G1 X206.299 Y174.291 E49.5373
G1 X206.013 Y175.148 E49.56735
G1 X205.652 Y175.976 E49.59739
G1 X205.22 Y176.768 E49.6274
G1 X204.719 Y177.52 E49.65745
G1 X204.153 Y178.224 E49.6875
G1 X203.528 Y178.875 E49.71751
G1 X202.847 Y179.469 E49.74757
G1 X202.116 Y180 E49.77762
G1 X201.342 Y180.464 E49.80763
G1 X200.529 Y180.858 E49.83768
G1 X199.685 Y181.178 E49.8677
G1 X198.815 Y181.423 E49.89777
G1 X197.928 Y181.589 E49.92778
G1 X196.777 Y181.687 E49.9662
G1 X196.456 Y181.696 E49.97688
G1 X196.17 Y181.7 E49.98639
G1 X39.075 Y181.699 E55.2114
G1 X38.377 Y181.69 E55.23461
G1 X37.476 Y181.639 E55.26463
G1 X36.582 Y181.507 E55.29468
G1 X35.704 Y181.298 E55.3247
G1 X34.847 Y181.011 E55.35476
G1 X34.02 Y180.65 E55.38478
G1 X33.227 Y180.217 E55.41483
G1 X32.476 Y179.716 E55.44485
G1 X31.772 Y179.15 E55.4749
G1 X31.121 Y178.524 E55.50494
G1 X30.528 Y177.843 E55.53497
G1 X29.998 Y177.112 E55.565
G1 X29.534 Y176.337 E55.59504
G1 X29.14 Y175.524 E55.62509
G1 X28.82 Y174.68 E55.65511
G1 X28.576 Y173.81 E55.68517
G1 X28.41 Y172.922 E55.71521
G1 X28.313 Y171.767 E55.75376
G1 X28.304 Y171.434 E55.76484
G1 X28.3 Y171.158 E55.77403
G1 X28.301 Y64.036 E59.33692
G1 X28.31 Y63.371 E59.35904
G1 X28.362 Y62.469 E59.38909
G1 X28.494 Y61.576 E59.41911
G1 X28.704 Y60.698 E59.44914
G1 X28.991 Y59.841 E59.4792
G1 X29.353 Y59.014 E59.50922
G1 X29.786 Y58.222 E59.53925
G1 X30.288 Y57.471 E59.56929
G1 X30.855 Y56.767 E59.59936
G1 X31.481 Y56.117 E59.62937
G1 X32.162 Y55.524 E59.6594
G1 X32.894 Y54.994 E59.68946
G1 X33.669 Y54.531 E59.71949
G1 F2700 E54.71949
;MESH:Housing Base v0 rev B.stl
G0 F6000 X48.074 Y159.852
G0 X48.516 Y157.635
G0 X50.594 Y160.308
G0 X51.012 Y161.157
G0 X51.174 Y161.855
G0 X51.174 Y162.616
G0 X50.822 Y165.565
;TYPE:WALL-INNER
G1 F2700 E59.71949
G1 F900 X51.217 Y165.114 E59.73943
G1 X51.549 Y164.617 E59.75931
G1 X51.815 Y164.08 E59.77924
G1 X52.009 Y163.51 E59.79927
G1 X52.12 Y162.949 E59.81829
G1 X52.126 Y162.923 E59.81917
G1 X52.127 Y162.898 E59.82001
G1 X52.167 Y162.325 E59.83911
G1 X52.13 Y161.743 E59.85851
G1 X52.071 Y161.401 E59.87005
G1 X51.925 Y160.846 E59.88914
G1 X51.693 Y160.291 E59.90915
G1 X51.393 Y159.772 E59.92908
G1 X51.027 Y159.297 E59.94903
G1 X50.608 Y158.875 E59.96881
G1 X50.13 Y158.508 E59.98885
G1 X49.61 Y158.209 E60.0088
G1 X49.587 Y158.2 E60.00962
G1 X49.058 Y157.979 E60.02869
G1 X48.478 Y157.822 E60.04868
G1 X47.881 Y157.743 E60.06871
G1 X47.284 Y157.743 E60.08856
G1 X46.686 Y157.822 E60.10862
G1 X46.106 Y157.976 E60.12858
G1 X45.553 Y158.206 E60.1485
G1 X45.032 Y158.507 E60.16852
G1 X44.557 Y158.87 E60.1884
G1 X44.134 Y159.294 E60.20832
G1 X43.768 Y159.77 E60.22829
G1 X43.483 Y160.265 E60.24729
G1 X43.469 Y160.288 E60.24818
G1 X43.46 Y160.312 E60.24904
G1 X43.25 Y160.818 E60.26726
G1 X43.239 Y160.843 E60.26817
G1 X43.082 Y161.422 E60.28812
G1 X43.003 Y162.018 E60.30812
G1 X43.003 Y162.62 E60.32814
G1 X43.082 Y163.214 E60.34807
G1 X43.236 Y163.795 E60.36806
G1 X43.467 Y164.349 E60.38802
G1 X43.767 Y164.868 E60.40796
G1 X44.133 Y165.344 E60.42793
G1 X44.554 Y165.765 E60.44774
G1 X45.03 Y166.131 E60.46771
G1 X45.547 Y166.43 E60.48757
G1 X46.102 Y166.66 E60.50755
G1 X46.67 Y166.814 E60.52713
G1 X47.066 Y166.874 E60.54045
G1 X47.58 Y166.907 E60.55758
G1 X48.177 Y166.867 E60.57748
G1 X48.767 Y166.75 E60.59749
G1 X49.334 Y166.556 E60.61742
G1 X49.873 Y166.292 E60.63738
G1 X50.372 Y165.958 E60.65735
G1 X50.822 Y165.565 E60.67722
G0 F6000 X50.539 Y165.281
G1 F900 X50.899 Y164.87 E60.69539
G1 X51.202 Y164.416 E60.71355
G1 X51.445 Y163.926 E60.73174
G1 X51.622 Y163.406 E60.75001
G1 X51.723 Y162.896 E60.7673
G1 X51.729 Y162.87 E60.76819
G1 X51.73 Y162.845 E60.76902
G1 X51.766 Y162.324 E60.78639
G1 X51.732 Y161.79 E60.80419
G1 X51.68 Y161.486 E60.81445
G1 X51.545 Y160.975 E60.83203
G1 X51.334 Y160.469 E60.85026
G1 X51.06 Y159.995 E60.86847
G1 X50.726 Y159.561 E60.88668
G1 X50.343 Y159.176 E60.90475
G1 X49.907 Y158.841 E60.92303
G1 X49.433 Y158.568 E60.94123
G1 X49.41 Y158.559 E60.94205
G1 X48.953 Y158.369 E60.95851
G1 X48.928 Y158.358 E60.95942
G1 X48.399 Y158.215 E60.97764
G1 X47.855 Y158.143 E60.9959
G1 X47.31 Y158.143 E61.01402
G1 X46.764 Y158.215 E61.03234
G1 X46.235 Y158.356 E61.05055
G1 X45.73 Y158.565 E61.06873
G1 X45.255 Y158.84 E61.08698
G1 X44.821 Y159.172 E61.10516
G1 X44.435 Y159.558 E61.12331
G1 X44.101 Y159.993 E61.14155
G1 X43.828 Y160.465 E61.15969
G1 X43.618 Y160.972 E61.17794
G1 X43.475 Y161.501 E61.19617
G1 X43.403 Y162.044 E61.21439
G1 X43.403 Y162.594 E61.23268
G1 X43.475 Y163.136 E61.25086
G1 X43.616 Y163.666 E61.2691
G1 X43.826 Y164.171 E61.2873
G1 X44.1 Y164.645 E61.30551
G1 X44.434 Y165.079 E61.32372
G1 X44.819 Y165.464 E61.34183
G1 X45.253 Y165.798 E61.36004
G1 X45.725 Y166.071 E61.37818
G1 X46.206 Y166.27 E61.39549
G1 X46.231 Y166.281 E61.3964
G1 X46.752 Y166.422 E61.41435
G1 X47.109 Y166.476 E61.42636
G1 X47.58 Y166.506 E61.44206
G1 X48.125 Y166.47 E61.46023
G1 X48.663 Y166.363 E61.47847
G1 X49.181 Y166.186 E61.49668
G1 X49.673 Y165.945 E61.5149
G1 X50.128 Y165.64 E61.53312
G1 X50.539 Y165.281 E61.55127
G0 F6000 X50.256 Y164.997
G1 F900 X50.581 Y164.626 E61.56767
G1 X50.855 Y164.215 E61.5841
G1 X51.075 Y163.772 E61.60055
G1 X51.235 Y163.302 E61.61707
G1 X51.332 Y162.817 E61.63352
G1 X51.365 Y162.323 E61.64998
G1 X51.334 Y161.836 E61.66621
G1 X51.289 Y161.571 E61.67515
G1 X51.165 Y161.104 E61.69123
G1 X50.975 Y160.647 E61.70769
G1 X50.727 Y160.218 E61.72417
G1 X50.425 Y159.825 E61.74065
G1 X50.078 Y159.477 E61.757
G1 X49.684 Y159.174 E61.77353
G1 X49.256 Y158.927 E61.78997
G1 X48.799 Y158.737 E61.80643
G1 X48.32 Y158.608 E61.82293
G1 X47.829 Y158.543 E61.8394
G1 X47.336 Y158.543 E61.8558
G1 X46.842 Y158.608 E61.87237
G1 X46.364 Y158.736 E61.88883
G1 X45.907 Y158.925 E61.90528
G1 X45.478 Y159.173 E61.92176
G1 X45.085 Y159.474 E61.93822
G1 X44.736 Y159.822 E61.95461
G1 X44.434 Y160.216 E61.97112
G1 X44.187 Y160.643 E61.98753
G1 X43.997 Y161.101 E62.00402
G1 X43.868 Y161.58 E62.02052
G1 X43.803 Y162.07 E62.03696
G1 X43.803 Y162.568 E62.05353
G1 X43.868 Y163.058 E62.06997
G1 X43.996 Y163.537 E62.08646
G1 X44.185 Y163.994 E62.10291
G1 X44.433 Y164.422 E62.11936
G1 X44.735 Y164.815 E62.13584
G1 X45.083 Y165.163 E62.15221
G1 X45.476 Y165.465 E62.1687
G1 X45.903 Y165.712 E62.1851
G1 X46.36 Y165.902 E62.20156
G1 X46.834 Y166.03 E62.21789
G1 X47.152 Y166.078 E62.22859
G1 X47.58 Y166.105 E62.24286
G1 X48.073 Y166.073 E62.25929
G1 X48.559 Y165.976 E62.27577
G1 X49.028 Y165.816 E62.29225
G1 X49.473 Y165.598 E62.30873
G1 X49.884 Y165.322 E62.3252
G1 X50.256 Y164.997 E62.34163
G0 F6000 X49.973 Y164.713
;TYPE:WALL-OUTER
G1 F900 X50.263 Y164.382 E62.35627
G1 X50.508 Y164.014 E62.37097
G1 X50.705 Y163.618 E62.38568
G1 X50.848 Y163.198 E62.40044
G1 X50.935 Y162.764 E62.41516
G1 X50.964 Y162.323 E62.42986
G1 X50.936 Y161.882 E62.44456
G1 X50.898 Y161.656 E62.45218
G1 X50.785 Y161.233 E62.46674
G1 X50.616 Y160.824 E62.48146
G1 X50.394 Y160.441 E62.49618
G1 X50.124 Y160.089 E62.51094
G1 X49.813 Y159.778 E62.52557
G1 X49.461 Y159.507 E62.54034
G1 X49.078 Y159.286 E62.55505
G1 X48.67 Y159.116 E62.56975
G1 X48.242 Y159.001 E62.58449
G1 X47.803 Y158.943 E62.59922
G1 X47.362 Y158.943 E62.61389
G1 X46.92 Y159.001 E62.62871
G1 X46.493 Y159.116 E62.64342
G1 X46.084 Y159.285 E62.65814
G1 X45.701 Y159.506 E62.67285
G1 X45.349 Y159.776 E62.6876
G1 X45.037 Y160.087 E62.70226
G1 X44.767 Y160.439 E62.71701
G1 X44.546 Y160.821 E62.73169
G1 X44.376 Y161.23 E62.74642
G1 X44.261 Y161.658 E62.76116
G1 X44.203 Y162.096 E62.77586
G1 X44.203 Y162.542 E62.79069
G1 X44.261 Y162.98 E62.80538
G1 X44.376 Y163.408 E62.82013
G1 X44.545 Y163.817 E62.83484
G1 X44.766 Y164.199 E62.84952
G1 X45.036 Y164.551 E62.86428
G1 X45.347 Y164.862 E62.87891
G1 X45.699 Y165.132 E62.89366
G1 X46.081 Y165.353 E62.90834
G1 X46.489 Y165.523 E62.92304
G1 X46.916 Y165.638 E62.93775
G1 X47.194 Y165.68 E62.9471
G1 X47.58 Y165.704 E62.95996
G1 X48.021 Y165.676 E62.97466
G1 X48.455 Y165.589 E62.98938
G1 X48.875 Y165.446 E63.00414
G1 X49.272 Y165.251 E63.01885
G1 X49.64 Y165.004 E63.03359
G1 X49.973 Y164.713 E63.0483
G0 F6000 X50.283 Y165.024
G1 F2700 E58.0483
G0 F6000 X50.926 Y163.71
G0 X51.173 Y162.795
G0 X51.174 Y161.855
G0 X51.012 Y161.157
G0 X50.776 Y160.677
G0 X49.12 Y157.798
G0 X48.394 Y159.937
G0 X47.909 Y75.077
G0 X48.203 Y77.317
G0 X49.334 Y76.816
;TYPE:WALL-INNER
G1 F2700 E63.0483
G1 F900 X49.873 Y76.552 E63.06826
G1 X50.372 Y76.218 E63.08823
G1 X50.822 Y75.825 E63.10811
G1 X51.217 Y75.374 E63.12805
G1 X51.549 Y74.877 E63.14792
G1 X51.815 Y74.34 E63.16786
G1 X52.01 Y73.769 E63.18792
G1 X52.126 Y73.179 E63.20792
G1 X52.127 Y73.154 E63.20876
G1 X52.162 Y72.627 E63.22632
G1 X52.164 Y72.607 E63.22699
G1 X52.154 Y72.262 E63.23847
G1 X52.078 Y71.686 E63.25779
G1 X51.924 Y71.107 E63.27772
G1 X51.696 Y70.553 E63.29765
G1 X51.393 Y70.032 E63.31769
G1 X51.027 Y69.557 E63.33764
G1 X50.607 Y69.135 E63.35744
G1 X50.131 Y68.769 E63.37741
G1 X49.613 Y68.469 E63.39732
G1 X49.058 Y68.237 E63.41733
G1 X48.48 Y68.083 E63.43722
G1 X47.885 Y68.003 E63.45719
