;FLAVOR:Marlin
;TIME:22006
;Filament used: 15.5516m
;Layer height: 0.2
;MINX:27.5
;MINY:52.5
;MINZ:0.2
;MAXX:207.5
;MAXY:182.5
;MAXZ:5
;Generated with Cura_SteamEngine 4.8.0
M140 S80
M105
M190 S80
M104 S230
M105
M109 S230
M82 ;absolute extrusion mode
; Ender 3 Custom Start G-code
G92 E0 ; Reset Extruder
G28 ; Home all axes
G1 Z2.0 F3000 ; Move Z Axis up little to prevent scratching of Heat Bed
G1 X0.1 Y20 Z0.3 F5000.0 ; Move to start position
G1 X0.1 Y200.0 Z0.3 F1500.0 E15 ; Draw the first line
G1 X0.4 Y200.0 Z0.3 F5000.0 ; Move to side a little
G1 X0.4 Y20 Z0.3 F1500.0 E30 ; Draw the second line
G92 E0 ; Reset Extruder
G1 Z2.0 F3000 ; Move Z Axis up little to prevent scratching of Heat Bed
G1 X5 Y20 Z0.3 F5000.0 ; Move over to prevent blob squish
G92 E0
G92 E0
G1 F2700 E-2
;LAYER_COUNT:25
;LAYER:0
M107
G0 F6000 X32.912 Y54.039 Z0.2
;TYPE:SKIRT
G1 F2700 E0
G1 F900 X33.739 Y53.597 E0.03119
G1 X34.601 Y53.227 E0.06239
G1 X35.491 Y52.931 E0.09358
G1 X36.403 Y52.713 E0.12477
G1 X37.33 Y52.572 E0.15596
G1 X38.201 Y52.513 E0.18499
G1 X38.522 Y52.504 E0.19567
G1 X38.83 Y52.5 E0.20592
G1 X195.793 Y52.5 E5.42653
G1 X196.649 Y52.511 E5.455
G1 X197.585 Y52.565 E5.48619
G1 X198.513 Y52.697 E5.51736
G1 X199.427 Y52.909 E5.54857
G1 X200.319 Y53.198 E5.57976
G1 X201.184 Y53.561 E5.61096
G1 X202.014 Y53.997 E5.64214
G1 X202.805 Y54.502 E5.67335
G1 X203.549 Y55.073 E5.70455
G1 X204.242 Y55.705 E5.73574
G1 X204.879 Y56.393 E5.76693
G1 X205.454 Y57.134 E5.79812
G1 X205.965 Y57.92 E5.8293
G1 X206.407 Y58.748 E5.86052
G1 X206.776 Y59.61 E5.89171
G1 X207.071 Y60.5 E5.92289
G1 X207.289 Y61.412 E5.95408
G1 X207.429 Y62.34 E5.9853
G1 X207.487 Y63.201 E6.014
G1 X207.496 Y63.521 E6.02464
G1 X207.5 Y63.83 E6.03492
G1 X207.499 Y170.9 E9.59609
G1 X207.49 Y171.627 E9.62027
G1 X207.439 Y172.564 E9.65148
G1 X207.307 Y173.492 E9.68265
G1 X207.098 Y174.406 E9.71384
G1 X206.811 Y175.299 E9.74504
G1 X206.449 Y176.165 E9.77625
G1 X206.015 Y176.996 E9.80744
G1 X205.511 Y177.787 E9.83863
G1 X204.942 Y178.532 E9.86981
G1 X204.311 Y179.227 E9.90103
G1 X203.624 Y179.865 E9.93222
G1 X202.885 Y180.442 E9.9634
G1 X202.099 Y180.954 E9.9946
G1 X201.273 Y181.397 E10.02577
G1 X200.411 Y181.769 E10.057
G1 X199.522 Y182.065 E10.08816
G1 X198.61 Y182.285 E10.11937
G1 X197.683 Y182.426 E10.15055
G1 X196.799 Y182.487 E10.18003
G1 X196.478 Y182.496 E10.19071
G1 X196.17 Y182.5 E10.20095
G1 X39.065 Y182.499 E15.42629
G1 X38.367 Y182.49 E15.4495
G1 X37.431 Y182.438 E15.48068
G1 X36.502 Y182.306 E15.51189
G1 X35.588 Y182.096 E15.54308
G1 X34.695 Y181.809 E15.57428
G1 X33.83 Y181.446 E15.60548
G1 X32.999 Y181.012 E15.63666
G1 X32.208 Y180.508 E15.66786
G1 X31.463 Y179.938 E15.69906
G1 X30.769 Y179.307 E15.73026
G1 X30.132 Y178.62 E15.76142
G1 X29.555 Y177.88 E15.79263
G1 X29.043 Y177.094 E15.82383
G1 X28.6 Y176.267 E15.85503
G1 X28.229 Y175.406 E15.88621
G1 X27.933 Y174.516 E15.91741
G1 X27.714 Y173.604 E15.9486
G1 X27.573 Y172.677 E15.97979
G1 X27.513 Y171.788 E16.00943
G1 X27.504 Y171.455 E16.02051
G1 X27.5 Y171.158 E16.03038
G1 X27.501 Y64.025 E19.59364
G1 X27.51 Y63.36 E19.61576
G1 X27.563 Y62.424 E19.64694
G1 X27.695 Y61.495 E19.67815
G1 X27.906 Y60.581 E19.70935
G1 X28.194 Y59.689 E19.74053
G1 X28.557 Y58.824 E19.77173
G1 X28.992 Y57.993 E19.80293
G1 X29.496 Y57.203 E19.83409
G1 X30.066 Y56.458 E19.86529
G1 X30.698 Y55.764 E19.89651
G1 X31.386 Y55.127 E19.9277
G1 X32.126 Y54.551 E19.95889
G1 X32.912 Y54.039 E19.99009
G0 F6000 X33.291 Y54.282
G1 F900 X34.111 Y53.864 E20.0207
G1 X34.965 Y53.519 E20.05133
G1 X35.845 Y53.249 E20.08195
G1 X36.745 Y53.057 E20.11256
G1 X37.659 Y52.943 E20.14319
G1 X38.212 Y52.913 E20.16161
G1 X38.533 Y52.904 E20.17229
G1 X38.83 Y52.9 E20.18217
G1 X195.793 Y52.9 E25.40278
G1 X196.643 Y52.911 E25.43106
G1 X197.562 Y52.964 E25.46167
G1 X198.473 Y53.097 E25.49229
G1 X199.369 Y53.308 E25.52291
G1 X200.243 Y53.596 E25.55352
G1 X201.09 Y53.959 E25.58417
G1 X201.901 Y54.394 E25.61478
G1 X202.671 Y54.898 E25.64538
G1 X203.395 Y55.467 E25.67601
G1 X204.067 Y56.097 E25.70665
G1 X204.682 Y56.782 E25.73727
G1 X205.235 Y57.518 E25.76789
G1 X205.722 Y58.299 E25.7985
G1 X206.139 Y59.12 E25.82913
G1 X206.484 Y59.974 E25.85976
G1 X206.753 Y60.854 E25.89037
G1 X206.945 Y61.755 E25.92101
G1 X207.058 Y62.668 E25.9516
G1 X207.087 Y63.212 E25.96972
G1 X207.096 Y63.532 E25.98037
G1 X207.1 Y63.83 E25.99028
G1 X207.099 Y170.895 E29.55128
G1 X207.09 Y171.622 E29.57546
G1 X207.039 Y172.541 E29.60608
G1 X206.908 Y173.453 E29.63672
G1 X206.698 Y174.349 E29.66733
G1 X206.412 Y175.224 E29.69795
G1 X206.051 Y176.071 E29.72857
G1 X205.617 Y176.883 E29.75919
G1 X205.115 Y177.655 E29.78982
G1 X204.547 Y178.38 E29.82045
G1 X203.919 Y179.053 E29.85107
G1 X203.235 Y179.669 E29.88168
G1 X202.5 Y180.223 E29.9123
G1 X201.72 Y180.712 E29.94292
G1 X200.9 Y181.131 E29.97354
G1 X200.047 Y181.477 E30.00416
G1 X199.167 Y181.748 E30.03479
G1 X198.267 Y181.941 E30.0654
G1 X197.353 Y182.056 E30.09604
G1 X196.788 Y182.087 E30.11486
G1 X196.467 Y182.096 E30.12554
G1 X196.17 Y182.1 E30.13542
G1 X39.07 Y182.099 E35.36059
G1 X38.372 Y182.09 E35.3838
G1 X37.453 Y182.038 E35.41442
G1 X36.542 Y181.907 E35.44503
G1 X35.646 Y181.697 E35.47564
G1 X34.771 Y181.41 E35.50627
G1 X33.924 Y181.048 E35.5369
G1 X33.112 Y180.614 E35.56753
G1 X32.341 Y180.112 E35.59813
G1 X31.616 Y179.544 E35.62876
G1 X30.943 Y178.915 E35.6594
G1 X30.328 Y178.231 E35.68999
G1 X29.774 Y177.496 E35.72061
G1 X29.286 Y176.715 E35.75124
G1 X28.867 Y175.895 E35.78186
G1 X28.521 Y175.042 E35.81248
G1 X28.251 Y174.162 E35.84309
G1 X28.058 Y173.261 E35.87374
G1 X27.944 Y172.348 E35.90434
G1 X27.913 Y171.777 E35.92336
G1 X27.904 Y171.444 E35.93444
G1 X27.9 Y171.158 E35.94396
G1 X27.901 Y64.031 E39.50701
G1 X27.91 Y63.366 E39.52913
G1 X27.962 Y62.446 E39.55978
G1 X28.094 Y61.535 E39.5904
G1 X28.305 Y60.639 E39.62102
G1 X28.592 Y59.764 E39.65164
G1 X28.955 Y58.918 E39.68226
G1 X29.389 Y58.106 E39.71289
G1 X29.892 Y57.335 E39.7435
G1 X30.461 Y56.611 E39.77413
G1 X31.089 Y55.939 E39.80472
G1 X31.774 Y55.323 E39.83536
G1 X32.51 Y54.77 E39.86598
G1 X33.291 Y54.282 E39.89661
G0 F6000 X33.669 Y54.531
G1 F900 X34.482 Y54.138 E39.92665
G1 X35.327 Y53.818 E39.9567
G1 X36.196 Y53.575 E39.98671
G1 X37.084 Y53.409 E40.01676
G1 X38.223 Y53.313 E40.05478
G1 X38.544 Y53.304 E40.06546
G1 X38.83 Y53.3 E40.07497
G1 X195.793 Y53.3 E45.29558
G1 X196.637 Y53.311 E45.32365
G1 X197.539 Y53.364 E45.35371
G1 X198.432 Y53.496 E45.38373
G1 X199.31 Y53.707 E45.41376
G1 X200.166 Y53.995 E45.4438
G1 X200.993 Y54.357 E45.47383
G1 X201.785 Y54.792 E45.50388
G1 X202.536 Y55.294 E45.53393
G1 X203.239 Y55.861 E45.56397
G1 X203.889 Y56.488 E45.594
G1 X204.481 Y57.17 E45.62404
G1 X205.011 Y57.901 E45.65407
G1 X205.473 Y58.677 E45.68411
G1 X205.866 Y59.49 E45.71414
G1 X206.184 Y60.335 E45.74417
G1 X206.427 Y61.205 E45.77422
G1 X206.592 Y62.093 E45.80426
G1 X206.687 Y63.223 E45.84197
G1 X206.696 Y63.543 E45.85262
G1 X206.7 Y63.83 E45.86217
G1 X206.699 Y170.89 E49.423
G1 X206.69 Y171.617 E49.44718
G1 X206.639 Y172.519 E49.47723
G1 X206.508 Y173.413 E49.50728
G1 X206.299 Y174.291 E49.5373
G1 X206.013 Y175.148 E49.56735
G1 X205.652 Y175.976 E49.59739
G1 X205.22 Y176.768 E49.6274
G1 X204.719 Y177.52 E49.65745
G1 X204.153 Y178.224 E49.6875
G1 X203.528 Y178.875 E49.71751
G1 X202.847 Y179.469 E49.74757
G1 X202.116 Y180 E49.77762
G1 X201.342 Y180.464 E49.80763
G1 X200.529 Y180.858 E49.83768
G1 X199.685 Y181.178 E49.8677
G1 X198.815 Y181.423 E49.89777
G1 X197.928 Y181.589 E49.92778
G1 X196.777 Y181.687 E49.9662
G1 X196.456 Y181.696 E49.97688
G1 X196.17 Y181.7 E49.98639
G1 X39.075 Y181.699 E55.2114
G1 X38.377 Y181.69 E55.23461
G1 X37.476 Y181.639 E55.26463
G1 X36.582 Y181.507 E55.29468
G1 X35.704 Y181.298 E55.3247
G1 X34.847 Y181.011 E55.35476
G1 X34.02 Y180.65 E55.38478
G1 X33.227 Y180.217 E55.41483
G1 X32.476 Y179.716 E55.44485
G1 X31.772 Y179.15 E55.4749
G1 X31.121 Y178.524 E55.50494
G1 X30.528 Y177.843 E55.53497
G1 X29.998 Y177.112 E55.565
G1 X29.534 Y176.337 E55.59504
G1 X29.14 Y175.524 E55.62509
G1 X28.82 Y174.68 E55.65511
G1 X28.576 Y173.81 E55.68517
G1 X28.41 Y172.922 E55.71521
G1 X28.313 Y171.767 E55.75376
G1 X28.304 Y171.434 E55.76484
G1 X28.3 Y171.158 E55.77403
G1 X28.301 Y64.036 E59.33692
G1 X28.31 Y63.371 E59.35904
G1 X28.362 Y62.469 E59.38909
G1 X28.494 Y61.576 E59.41911
G1 X28.704 Y60.698 E59.44914
G1 X28.991 Y59.841 E59.4792
G1 X29.353 Y59.014 E59.50922
G1 X29.786 Y58.222 E59.53925
G1 X30.288 Y57.471 E59.56929
G1 X30.855 Y56.767 E59.59936
G1 X31.481 Y56.117 E59.62937
G1 X32.162 Y55.524 E59.6594
G1 X32.894 Y54.994 E59.68946
G1 X33.669 Y54.531 E59.71949
G1 F2700 E57.71949
;MESH:PLsi  v0 - Housing Base rev D.stl
G0 F6000 X47.918 Y159.912
G0 X48.205 Y157.669
G0 X50.463 Y160.207
G0 X50.938 Y161.028
G0 X51.185 Y161.946
G0 X51.185 Y162.711
G0 X50.612 Y165.876
;TYPE:WALL-INNER
G1 F2700 E59.71949
G1 F900 X51.034 Y165.453 E59.73936
G1 X51.401 Y164.977 E59.75935
G1 X51.702 Y164.457 E59.77934
G1 X51.932 Y163.903 E59.79929
G1 X52.062 Y163.424 E59.8158
G1 X52.14 Y163.012 E59.82974
G1 X52.178 Y162.426 E59.84927
G1 X52.141 Y161.821 E59.86943
G1 X52.021 Y161.229 E59.88952
G1 X51.827 Y160.658 E59.90958
G1 X51.561 Y160.12 E59.92954
G1 X51.227 Y159.623 E59.94946
G1 X50.833 Y159.169 E59.96945
G1 X50.381 Y158.773 E59.98944
G1 X49.879 Y158.439 E60.00949
G1 X49.344 Y158.174 E60.02935
G1 X48.773 Y157.979 E60.04942
G1 X48.18 Y157.859 E60.06954
G1 X47.586 Y157.822 E60.08934
G1 X46.983 Y157.858 E60.10943
G1 X46.39 Y157.978 E60.12955
G1 X45.818 Y158.173 E60.14965
G1 X45.28 Y158.439 E60.16961
G1 X44.785 Y158.772 E60.18946
G1 X44.33 Y159.166 E60.20948
G1 X43.934 Y159.619 E60.22949
G1 X43.6 Y160.118 E60.24946
G1 X43.334 Y160.656 E60.26942
G1 X43.14 Y161.227 E60.28948
G1 X43.023 Y161.818 E60.30952
G1 X43.022 Y161.843 E60.31035
G1 X42.982 Y162.418 E60.32952
G1 X43.019 Y163.018 E60.34951
G1 X43.139 Y163.61 E60.3696
G1 X43.333 Y164.181 E60.38966
G1 X43.599 Y164.72 E60.40965
G1 X43.933 Y165.218 E60.4296
G1 X44.327 Y165.67 E60.44954
G1 X44.78 Y166.066 E60.46955
G1 X45.278 Y166.399 E60.48948
G1 X45.816 Y166.665 E60.50944
G1 X46.384 Y166.859 E60.5294
G1 X46.869 Y166.958 E60.54587
G1 X46.885 Y166.959 E60.5464
G1 X47.285 Y167.008 E60.5598
G1 X47.88 Y167.008 E60.57959
G1 X48.476 Y166.929 E60.59959
G1 X49.058 Y166.775 E60.61961
G1 X49.614 Y166.543 E60.63965
G1 X50.135 Y166.242 E60.65966
G1 X50.612 Y165.876 E60.67966
G0 F6000 X50.347 Y165.575
G1 F900 X50.733 Y165.188 E60.69784
G1 X51.068 Y164.754 E60.71608
G1 X51.343 Y164.279 E60.73433
G1 X51.553 Y163.773 E60.75255
G1 X51.672 Y163.335 E60.76765
G1 X51.674 Y163.32 E60.76815
G1 X51.742 Y162.962 E60.78027
G1 X51.777 Y162.425 E60.79817
G1 X51.743 Y161.873 E60.81657
G1 X51.634 Y161.333 E60.83489
G1 X51.457 Y160.812 E60.85319
G1 X51.214 Y160.321 E60.87141
G1 X50.909 Y159.867 E60.8896
G1 X50.549 Y159.452 E60.90787
G1 X50.137 Y159.091 E60.92609
G1 X49.679 Y158.786 E60.9444
G1 X49.19 Y158.544 E60.96254
G1 X48.668 Y158.366 E60.98089
G1 X48.128 Y158.257 E60.99921
G1 X47.585 Y158.223 E61.0173
G1 X47.035 Y158.256 E61.03563
G1 X46.494 Y158.365 E61.05399
G1 X45.972 Y158.543 E61.07233
G1 X45.481 Y158.786 E61.09055
G1 X45.028 Y159.09 E61.1087
G1 X44.613 Y159.45 E61.12697
G1 X44.252 Y159.863 E61.14521
G1 X43.947 Y160.319 E61.16346
G1 X43.704 Y160.81 E61.18168
G1 X43.527 Y161.331 E61.19998
G1 X43.426 Y161.845 E61.2174
G1 X43.42 Y161.871 E61.21829
G1 X43.419 Y161.896 E61.21912
G1 X43.383 Y162.419 E61.23656
G1 X43.417 Y162.966 E61.25479
G1 X43.526 Y163.506 E61.27311
G1 X43.703 Y164.027 E61.29141
G1 X43.946 Y164.519 E61.30966
G1 X44.251 Y164.974 E61.32788
G1 X44.611 Y165.387 E61.3461
G1 X45.024 Y165.748 E61.36435
G1 X45.479 Y166.052 E61.38255
G1 X45.97 Y166.295 E61.40077
G1 X46.489 Y166.472 E61.41901
G1 X46.933 Y166.563 E61.43408
G1 X46.949 Y166.564 E61.43462
G1 X47.309 Y166.608 E61.44668
G1 X47.854 Y166.608 E61.46481
G1 X48.398 Y166.536 E61.48306
G1 X48.929 Y166.395 E61.50133
G1 X49.436 Y166.184 E61.5196
G1 X49.912 Y165.909 E61.53788
G1 X50.347 Y165.575 E61.55612
G0 F6000 X50.083 Y165.274
G1 F900 X50.432 Y164.924 E61.57256
G1 X50.735 Y164.531 E61.58906
G1 X50.984 Y164.101 E61.60559
G1 X51.174 Y163.643 E61.62208
G1 X51.282 Y163.246 E61.63577
G1 X51.344 Y162.912 E61.64707
G1 X51.376 Y162.424 E61.66333
G1 X51.345 Y161.925 E61.67996
G1 X51.247 Y161.437 E61.69652
G1 X51.087 Y160.966 E61.71306
G1 X50.867 Y160.522 E61.72954
G1 X50.591 Y160.11 E61.74604
G1 X50.265 Y159.735 E61.76256
G1 X49.893 Y159.409 E61.77901
G1 X49.479 Y159.133 E61.79556
G1 X49.036 Y158.914 E61.812
G1 X48.564 Y158.753 E61.82859
G1 X48.076 Y158.655 E61.84514
G1 X47.584 Y158.624 E61.86154
G1 X47.087 Y158.654 E61.8781
G1 X46.598 Y158.752 E61.89469
G1 X46.126 Y158.913 E61.91127
G1 X45.682 Y159.133 E61.92775
G1 X45.271 Y159.408 E61.9442
G1 X44.896 Y159.734 E61.96073
G1 X44.57 Y160.107 E61.9772
G1 X44.294 Y160.52 E61.99373
G1 X44.074 Y160.964 E62.01021
G1 X43.914 Y161.435 E62.02675
G1 X43.817 Y161.923 E62.0433
G1 X43.784 Y162.42 E62.05987
G1 X43.815 Y162.914 E62.07633
G1 X43.913 Y163.402 E62.09288
G1 X44.073 Y163.873 E62.10943
G1 X44.293 Y164.318 E62.12594
G1 X44.569 Y164.73 E62.14243
G1 X44.895 Y165.104 E62.15893
G1 X45.268 Y165.43 E62.17541
G1 X45.68 Y165.705 E62.19189
G1 X46.124 Y165.925 E62.20837
G1 X46.594 Y166.085 E62.22488
G1 X46.997 Y166.168 E62.23857
G1 X47.333 Y166.208 E62.24982
G1 X47.828 Y166.208 E62.26628
G1 X48.32 Y166.143 E62.28279
G1 X48.8 Y166.015 E62.29931
G1 X49.259 Y165.825 E62.31584
G1 X49.689 Y165.576 E62.33236
G1 X50.083 Y165.274 E62.34887
G0 F6000 X49.819 Y164.973
;TYPE:WALL-OUTER
G1 F900 X50.131 Y164.66 E62.36357
G1 X50.402 Y164.308 E62.37835
G1 X50.625 Y163.923 E62.39315
G1 X50.795 Y163.513 E62.40791
G1 X50.892 Y163.157 E62.42018
G1 X50.946 Y162.863 E62.43012
G1 X50.975 Y162.423 E62.44479
G1 X50.947 Y161.977 E62.45965
G1 X50.86 Y161.541 E62.47444
G1 X50.717 Y161.12 E62.48923
G1 X50.52 Y160.723 E62.50397
G1 X50.273 Y160.353 E62.51876
G1 X49.981 Y160.018 E62.53355
G1 X49.649 Y159.727 E62.54823
G1 X49.279 Y159.48 E62.56303
G1 X48.882 Y159.284 E62.57775
G1 X48.46 Y159.14 E62.59258
G1 X48.024 Y159.053 E62.60737
G1 X47.583 Y159.025 E62.62207
G1 X47.138 Y159.052 E62.63689
G1 X46.702 Y159.139 E62.65168
G1 X46.28 Y159.283 E62.66651
G1 X45.883 Y159.48 E62.68125
G1 X45.514 Y159.726 E62.696
G1 X45.179 Y160.018 E62.71078
G1 X44.888 Y160.351 E62.72549
G1 X44.641 Y160.721 E62.74029
G1 X44.444 Y161.118 E62.75503
G1 X44.301 Y161.539 E62.76982
G1 X44.214 Y161.975 E62.78461
G1 X44.185 Y162.42 E62.79944
G1 X44.213 Y162.862 E62.81417
G1 X44.3 Y163.298 E62.82896
G1 X44.443 Y163.719 E62.84374
G1 X44.64 Y164.117 E62.85851
G1 X44.887 Y164.486 E62.87328
G1 X45.179 Y164.821 E62.88806
G1 X45.512 Y165.112 E62.90277
G1 X45.881 Y165.358 E62.91752
G1 X46.278 Y165.555 E62.93226
G1 X46.699 Y165.698 E62.94705
G1 X47.061 Y165.773 E62.95935
G1 X47.357 Y165.808 E62.96926
G1 X47.802 Y165.808 E62.98406
G1 X48.242 Y165.75 E62.99882
G1 X48.671 Y165.635 E63.01359
G1 X49.082 Y165.465 E63.02839
G1 X49.466 Y165.243 E63.04314
G1 X49.819 Y164.973 E63.05792
G0 F6000 X50.109 Y165.303
G1 F2700 E61.05792
G0 F6000 X50.84 Y164.029
G0 X51.126 Y163.209
G0 X51.215 Y162.423
G0 X51.092 Y161.479
G0 X50.886 Y160.983
G0 X49.418 Y157.998
G0 X48.544 Y160.081
G0 X47.916 Y75.981
G0 X48.2 Y78.225
G0 X49.329 Y77.723
;TYPE:WALL-INNER
G1 F2700 E63.05792
G1 F900 X49.867 Y77.46 E63.07784
G1 X50.363 Y77.127 E63.09771
G1 X50.812 Y76.735 E63.11753
G1 X51.206 Y76.285 E63.13743
G1 X51.539 Y75.787 E63.15735
G1 X51.802 Y75.251 E63.17721
G1 X51.995 Y74.686 E63.19707
G1 X52.112 Y74.098 E63.21701
G1 X52.113 Y74.072 E63.21787
G1 X52.152 Y73.505 E63.23678
G1 X52.115 Y72.905 E63.25677
G1 X51.996 Y72.316 E63.27676
G1 X51.803 Y71.752 E63.29658
G1 X51.54 Y71.215 E63.31647
G1 X51.207 Y70.717 E63.3364
G1 X50.815 Y70.268 E63.35622
G1 X50.363 Y69.873 E63.37619
G1 X49.867 Y69.543 E63.396
G1 X49.363 Y69.292 E63.41473
G1 X49.173 Y69.217 E63.42152
G1 X48.756 Y69.082 E63.4361
G1 X48.177 Y68.968 E63.45573
G1 X48.152 Y68.967 E63.45656
G1 X47.585 Y68.928 E63.47546
G1 X46.985 Y68.965 E63.49546
G1 X46.396 Y69.084 E63.51544
G1 X45.832 Y69.277 E63.53527
G1 X45.295 Y69.541 E63.55517
